assets/Sloth/Flat/sloth_flat.svg

<svg width="32" height="32" viewBox="0 0 32 32" fill="none" xmlns="http://www.w3.org/2000/svg">
<path d="M10 4.98999L11.16 4.99999C11.62 4.99999 12 5.37999 12 5.83999V22.37C12 24.02 10 25.21 8.29 23.62C8.1 23.45 8 23.22 8 22.97V6.13999H10.5L10 4.98999Z" fill="#A56953"/>
<path d="M22.5 5H23.16C23.62 5 24 5.38 24 5.84V22.37C24 24.02 22 25.21 20.29 23.63C20.1 23.46 20 23.23 20 22.98V6.15H22.5V5Z" fill="#A56953"/>
<path d="M24.56 8.01008H7.44C5.49 8.01008 3.65 7.20008 2.27 5.72008C1.91 5.33008 1.91 4.70008 2.27 4.31008C2.63 3.92008 3.23 3.92008 3.59 4.31008C4.62 5.41008 5.98 6.02008 7.44 6.02008H24.56C26.01 6.02008 27.38 5.41008 28.41 4.31008C28.77 3.92008 29.37 3.92008 29.73 4.31008C30.09 4.70008 30.09 5.33008 29.73 5.72008C28.35 7.19008 26.51 8.01008 24.56 8.01008Z" fill="#44911B"/>
<path d="M5.42624 21.612C3.41833 20.8085 2 18.845 2 16.5501C2 13.6382 4.2836 11.2597 7.15769 11.1078L7.00999 10.9601C6.80999 10.7601 6.80999 10.4501 7.00999 10.2501C7.19999 10.0501 7.51999 10.0501 7.70999 10.2501L8.06234 10.5976L8.40999 10.2499C8.59999 10.0599 8.91999 10.0599 9.10999 10.2599C9.30999 10.4599 9.30999 10.7699 9.10999 10.9699L8.97108 11.1088C11.4665 11.2492 13.5133 13.0685 14 15.4553V6C14 4.9 14.9 4 16 4C17.1 4 18 4.9 18 6V17L18.5131 18.99C18.5131 20.65 19.34 20.99 21 20.99C22.66 20.99 23.665 20.65 23.665 18.99L24 17V6C24 4.9 24.9 4 26 4C27.1 4 28 4.9 28 6V18.1259C28.3196 18.0437 28.6547 18 29 18C29.55 18 30 18.45 30 19C30 19.55 29.55 20 29 20C28.2027 20 27.8677 20.6357 27.6599 21.2864C27.6053 21.506 27.5443 21.723 27.4772 21.9374C27.4715 21.9585 27.4657 21.9794 27.46 22H27.4574C25.9762 26.6392 21.6297 30 16.5 30C11.2284 30 6.78381 26.4507 5.42624 21.612Z" fill="#F3AD61"/>
<path d="M7.49998 8.49999V5.48999C7.49998 5.20999 7.71998 4.98999 7.99998 4.98999C8.27998 4.98999 8.49998 5.20999 8.49998 5.48999C8.49998 5.20999 8.71998 4.98999 8.99998 4.98999C9.27998 4.98999 9.49998 5.20999 9.49998 5.48999C9.49998 5.20999 9.71998 4.98999 9.99998 4.98999C10.28 4.98999 10.5 5.20999 10.5 5.48999V7.49999C10.5 8.04999 10.05 8.49999 9.49998 8.49999V7.49999C9.49998 8.04999 9.04998 8.49999 8.49998 8.49999V7.49999C8.49998 8.04999 8.04998 8.49999 7.49998 8.49999Z" fill="#FFDEA7"/>
<path d="M7.44998 12.1001H8.65998C10.6778 12.1001 12.3795 13.4458 12.926 15.2817L12.59 18.6375C11.8426 20.041 10.3666 21.0001 8.66998 21.0001H7.44998C5.73959 21.0001 4.24852 20.0254 3.50413 18.6033L3.19812 15.2379C3.76063 13.4244 5.45632 12.1001 7.44998 12.1001Z" fill="#FFDEA7"/>
<path d="M24 19C24 20.66 22.66 22 21 22C19.34 22 18 20.66 18 19V16C18 17.67 19.37 19.03 21.05 19C22.7 18.97 24 17.6 24 15.95V19Z" fill="#FFDEA7"/>
<path d="M20 5.48999V8.49999C20.55 8.49999 21 8.04999 21 7.49999V8.49999C21.55 8.49999 22 8.04999 22 7.49999V8.49999C22.55 8.49999 23 8.04999 23 7.49999V5.48999C23 5.20999 22.78 4.98999 22.5 4.98999C22.22 4.98999 22 5.20999 22 5.48999C22 5.20999 21.78 4.98999 21.5 4.98999C21.22 4.98999 21 5.20999 21 5.48999C21 5.20999 20.78 4.98999 20.5 4.98999C20.22 4.98999 20 5.20999 20 5.48999Z" fill="#FFDEA7"/>
<path d="M9.80002 17.8901C8.91002 17.6501 8.38002 16.7301 8.62002 15.8401C8.86002 14.9501 9.77002 14.4201 10.66 14.6601L12.93 15.2701C13.05 15.6701 13.12 16.1001 13.12 16.5401C13.12 17.3001 12.93 18.0201 12.59 18.6501L9.80002 17.8901Z" fill="#636363"/>
<path d="M3.2 15.23L5.35 14.66C6.24 14.42 7.16 14.95 7.39 15.85C7.63 16.74 7.1 17.66 6.21 17.9L3.51 18.62C3.19 18 3 17.3 3 16.55C3 16.09 3.07 15.64 3.2 15.23Z" fill="#636363"/>
<path d="M5.75 17C6.16421 17 6.5 16.6642 6.5 16.25C6.5 15.8358 6.16421 15.5 5.75 15.5C5.33579 15.5 5 15.8358 5 16.25C5 16.6642 5.33579 17 5.75 17Z" fill="#1C1C1C"/>
<path d="M7.74997 18.38L7.07997 17.83C6.96997 17.74 6.90997 17.61 6.90997 17.47C6.90997 17.21 7.11997 17 7.37997 17H8.73997C8.99997 17 9.20997 17.21 9.20997 17.47C9.20997 17.61 9.14997 17.74 9.03997 17.83L8.37997 18.38C8.18997 18.53 7.92997 18.53 7.74997 18.38Z" fill="#1C1C1C"/>
<path d="M11 16.25C11 16.6642 10.6642 17 10.25 17C9.83579 17 9.5 16.6642 9.5 16.25C9.5 15.8358 9.83579 15.5 10.25 15.5C10.6642 15.5 11 15.8358 11 16.25Z" fill="#1C1C1C"/>
</svg>

<svg xmlns="http://www.w3.org/2000/svg" width="32" height="32" fill="none"><path fill="#A56953" d="m10 4.99 1.16.01c.46 0 .84.38.84.84v16.53c0 1.65-2 2.84-3.71 1.25a.858.858 0 0 1-.29-.65V6.14h2.5L10 4.99ZM22.5 5h.66c.46 0 .84.38.84.84v16.53c0 1.65-2 2.84-3.71 1.26a.858.858 0 0 1-.29-.65V6.15h2.5V5Z"/><path fill="#44911B" d="M24.56 8.01H7.44c-1.95 0-3.79-.81-5.17-2.29-.36-.39-.36-1.02 0-1.41a.89.89 0 0 1 1.32 0c1.03 1.1 2.39 1.71 3.85 1.71h17.12c1.45 0 2.82-.61 3.85-1.71a.89.89 0 0 1 1.32 0c.36.39.36 1.02 0 1.41-1.38 1.47-3.22 2.29-5.17 2.29Z"/><path fill="#F3AD61" d="M5.426 21.612a5.452 5.452 0 0 1 1.732-10.504l-.148-.148c-.2-.2-.2-.51 0-.71.19-.2.51-.2.7 0l.352.348.348-.348c.19-.19.51-.19.7.01.2.2.2.51 0 .71l-.139.139A5.453 5.453 0 0 1 14 15.455V6c0-1.1.9-2 2-2s2 .9 2 2v11l.513 1.99c0 1.66.827 2 2.487 2 1.66 0 2.665-.34 2.665-2L24 17V6c0-1.1.9-2 2-2s2 .9 2 2v12.126A4.01 4.01 0 0 1 29 18c.55 0 1 .45 1 1s-.45 1-1 1c-.797 0-1.132.636-1.34 1.286-.055.22-.116.437-.183.651L27.46 22h-.003c-1.48 4.64-5.827 8-10.957 8-5.272 0-9.716-3.55-11.074-8.388Z"/><path fill="#FFDEA7" d="M7.5 8.5V5.49c0-.28.22-.5.5-.5s.5.22.5.5c0-.28.22-.5.5-.5s.5.22.5.5c0-.28.22-.5.5-.5s.5.22.5.5V7.5c0 .55-.45 1-1 1v-1c0 .55-.45 1-1 1v-1c0 .55-.45 1-1 1ZM7.45 12.1h1.21a4.455 4.455 0 0 1 4.266 3.182l-.336 3.355A4.443 4.443 0 0 1 8.67 21H7.45a4.46 4.46 0 0 1-3.946-2.397l-.306-3.365A4.464 4.464 0 0 1 7.45 12.1ZM24 19c0 1.66-1.34 3-3 3s-3-1.34-3-3v-3a3 3 0 0 0 3.05 3c1.65-.03 2.95-1.4 2.95-3.05V19ZM20 5.49V8.5c.55 0 1-.45 1-1v1c.55 0 1-.45 1-1v1c.55 0 1-.45 1-1V5.49c0-.28-.22-.5-.5-.5s-.5.22-.5.5c0-.28-.22-.5-.5-.5s-.5.22-.5.5c0-.28-.22-.5-.5-.5s-.5.22-.5.5Z"/><path fill="#636363" d="M9.8 17.89a1.675 1.675 0 0 1-1.18-2.05c.24-.89 1.15-1.42 2.04-1.18l2.27.61a4.432 4.432 0 0 1-.34 3.38l-2.79-.76ZM3.2 15.23l2.15-.57c.89-.24 1.81.29 2.04 1.19.24.89-.29 1.81-1.18 2.05l-2.7.72C3.19 18 3 17.3 3 16.55c0-.46.07-.91.2-1.32Z"/><path fill="#1C1C1C" d="M5.75 17a.75.75 0 1 0 0-1.5.75.75 0 0 0 0 1.5ZM7.75 18.38l-.67-.55a.47.47 0 0 1 .3-.83h1.36a.47.47 0 0 1 .3.83l-.66.55c-.19.15-.45.15-.63 0ZM11 16.25a.75.75 0 1 1-1.5 0 .75.75 0 0 1 1.5 0Z"/></svg>
